src/ideal-issuers/knab/ideal-issuer-knab-mollie-32x24.svg

<svg fill="none" height="24" viewBox="0 0 32 24" width="32" xmlns="http://www.w3.org/2000/svg" xmlns:xlink="http://www.w3.org/1999/xlink"><mask id="a" height="24" maskUnits="userSpaceOnUse" width="32" x="0" y="0"><path d="m28 0h-24c-2.20914 0-4 1.79086-4 4v16c0 2.2091 1.79086 4 4 4h24c2.2091 0 4-1.7909 4-4v-16c0-2.20914-1.7909-4-4-4z" fill="#fff"/></mask><mask id="b" height="24" maskUnits="userSpaceOnUse" width="32" x="0" y="0"><path d="m28 0h-24c-2.20914 0-4 1.79086-4 4v16c0 2.2091 1.79086 4 4 4h24c2.2091 0 4-1.7909 4-4v-16c0-2.20914-1.7909-4-4-4z" fill="#fff"/></mask><g mask="url(#a)"><path d="m28 0h-24c-2.20914 0-4 1.79086-4 4v16c0 2.2091 1.79086 4 4 4h24c2.2091 0 4-1.7909 4-4v-16c0-2.20914-1.7909-4-4-4z" fill="#ff5300"/></g><g mask="url(#b)"><path d="m28 0h-24c-2.20914 0-4 1.79086-4 4v16c0 2.2091 1.79086 4 4 4h24c2.2091 0 4-1.7909 4-4v-16c0-2.20914-1.7909-4-4-4z" fill="#00374e"/><g clip-rule="evenodd" fill="#fff" fill-rule="evenodd"><path d="m2.82664 0c-.65999 0-1.0783.322756-1.32922.717065h-.01871l.00897-.6367365h-1.268636c-.111637 0-.219044.1354465-.219044.2648365v3.897535c0 .13018.107066.2573.225496.2573h1.262184v-2.18716c0-.63698.17718-1.13877.81799-1.13877.61432 0 .70695.43921.70695 1.02219v2.04348c0 .1354.10561.26026.21721.26026h1.27017v-2.60841c0-1.067297-.34393-1.89159-1.67336-1.89159z" transform="translate(12.25 10.5)"/><path d="m2.32677 5.07207c-.6024 0-1.0131-.46462-1.0131-1.14461 0-.67994.4107-1.1451 1.0131-1.1451.60248 0 1.00365.46516 1.00365 1.1451 0 .67999-.40117 1.14461-1.00365 1.14461zm.18822-3.46316c-.55002 0-.9285.19526-1.157.402.00475-.15065.01018-.37191.01018-.59061v-1.4203h-1.166591c-.1026765 0-.201579.130788-.201579.250011v5.407269c0 .12929.0963872.24851.204724.24851h1.095326l-.00559-.34579c.31236.29954.73875.44 1.21207.44 1.22296 0 1.99347-.95902 1.99347-2.19975 0-1.24113-.77051-2.19134-1.98501-2.19134z" transform="translate(22 9)"/><path d="m4.36696 1.7125h-1.45744c-.11237 0-.22408.06222-.29602.13647l-1.19924 1.28131v-3.13028h-1.205985c-.106108 0-.208275.131396-.208275.252521v5.498879c0 .12308.0843745.2486.20925.2486h1.20501v-1.29549l.38897-.37433.96659 1.50889c.0903.12341.21542.16093.36012.16093h1.37006l-1.72405-2.67842z" transform="translate(7 9)"/><path d="m2.49755 3.21023c-.0792.14979-.30751.39537-.64637.39537-.34668 0-.59062-.2024-.59062-.53537 0-.32445.22856-.50891.61422-.52609l.62277-.04401zm.78736-2.710261c-.30732-.315952-.72452-.499969-1.44944-.499969-.62038 0-1.151996.186193-1.500376.355416-.089737.045954-.125032.180792-.088977.284026l.258461.711478c.196886-.14044.693142-.386214 1.189352-.386214.50425 0 .7954.237264.7954.692814v.09695l-.97646.04409c-.716962.03483-1.51287.35957-1.51287 1.32396 0 .96531.725102 1.37748 1.41002 1.37748.63055 0 .94538-.36856 1.11102-.55245l.016.29467c.00504.08078.07533.16124.17253.16124h1.04043v-2.43837c0-.72849-.16547-1.149532-.46509-1.465121z" transform="translate(17.5 10.5)"/></g></g></svg>

<svg width="32" height="24" viewBox="0 0 32 24" fill="none" xmlns="http://www.w3.org/2000/svg">
<rect width="32" height="24" rx="4" fill="#00374E"/>
<path fill-rule="evenodd" clip-rule="evenodd" d="M2.82664 0C2.16665 0 1.74834 0.322756 1.49742 0.717065H1.47871L1.48768 0.0803285H0.219044C0.107407 0.0803285 0 0.215775 0 0.345165V4.2427C0 4.37288 0.107066 4.5 0.225496 4.5H1.48768V2.31284C1.48768 1.67586 1.66486 1.17407 2.30567 1.17407C2.91999 1.17407 3.01262 1.61328 3.01262 2.19626V4.23974C3.01262 4.37514 3.11823 4.5 3.22983 4.5H4.5V1.89159C4.5 0.824293 4.15607 0 2.82664 0Z" transform="translate(12.25 10.5)" fill="white"/>
<path fill-rule="evenodd" clip-rule="evenodd" d="M2.32677 5.07207C1.72437 5.07207 1.31367 4.60745 1.31367 3.92746C1.31367 3.24752 1.72437 2.78236 2.32677 2.78236C2.92925 2.78236 3.33042 3.24752 3.33042 3.92746C3.33042 4.60745 2.92925 5.07207 2.32677 5.07207ZM2.51499 1.60891C1.96497 1.60891 1.58649 1.80417 1.35799 2.01091C1.36274 1.86026 1.36817 1.639 1.36817 1.4203V0H0.201579C0.0989025 0 0 0.130788 0 0.250011V5.65728C0 5.78657 0.0963872 5.90579 0.204724 5.90579H1.30005L1.29446 5.56C1.60682 5.85954 2.03321 6 2.50653 6C3.72949 6 4.5 5.04098 4.5 3.80025C4.5 2.55912 3.72949 1.60891 2.51499 1.60891Z" transform="translate(22 9)" fill="white"/>
<path fill-rule="evenodd" clip-rule="evenodd" d="M4.36696 1.7125H2.90952C2.79715 1.7125 2.68544 1.77472 2.6135 1.84897L1.41426 3.13028V0H0.208275C0.102167 0 0 0.131396 0 0.252521V5.7514C0 5.87448 0.0843745 6 0.20925 6H1.41426V4.70451L1.80323 4.33018L2.76982 5.83907C2.86012 5.96248 2.98524 6 3.12994 6H4.5L2.77595 3.32158L4.36696 1.7125Z" transform="translate(7 9)" fill="white"/>
<path fill-rule="evenodd" clip-rule="evenodd" d="M2.49755 3.21023C2.41835 3.36002 2.19004 3.6056 1.85118 3.6056C1.5045 3.6056 1.26056 3.4032 1.26056 3.07023C1.26056 2.74578 1.48912 2.56132 1.87478 2.54414L2.49755 2.50013V3.21023ZM3.28491 0.499969C2.97759 0.184017 2.56039 0 1.83547 0C1.21509 0 0.683474 0.186193 0.335094 0.355416C0.245357 0.40137 0.210062 0.536208 0.246117 0.639442L0.504578 1.35092C0.701464 1.21048 1.19772 0.964706 1.69393 0.964706C2.19818 0.964706 2.48933 1.20197 2.48933 1.65752V1.75447L1.51287 1.79856C0.795908 1.83339 0 2.15813 0 3.12252C0 4.08783 0.725102 4.5 1.41002 4.5C2.04057 4.5 2.3554 4.13144 2.52104 3.94755L2.53704 4.24222C2.54208 4.323 2.61237 4.40346 2.70957 4.40346H3.75V1.96509C3.75 1.2366 3.58453 0.815558 3.28491 0.499969Z" transform="translate(17.5 10.5)" fill="white"/>
</svg>
